X: 20976
T: Jules Verret's
R: reel
M: 4/4
K: Gdorian
g2fe d2dc|BABc d2 d2|c2 (3ccc B2 B2|AG^FG Ad (3ddd|
g2fe d2dc|BABc d2 d2|c2 (3ccc =B2 B2|AG^FA G2 d2:|
K:D
fgfe d2 ef|gagf e2 Ac|efed cdeg|fgfe d2 de|
fgfe d2 ef|gagf e2 Ac|efed cdag|1 fdec d2 Ad:|2 fdec d2 ag||
fagf egfe|dcde f2 A2|dcde fedf|edcB A2 ag|
fagf egfe|dcde f2 A2|B2 (3BBB A2 A2|1 F2 E2 D2 ag:|2 F2 E2 D2 z2||

